!!!COM: Palestrina, Giovanni Perluigi da
!!!OPR: Missa O magnum mysterium
!!!OMD: Credo
!!!OTL: Et ascendit
**kern	**kern	**kern	**kern
*Itenor	*Icalto	*Icalto	*Icant
!Tenor	!Altus 2	!Altus 1	!Cantus
*clefGv2	*clefG2	*clefG2	*clefG2
*k[]	*k[]	*k[]	*k[]
*E:phr	*E:phr	*E:phr	*E:phr
*M4/2	*M4/2	*M4/2	*M4/2
=117	=117	=117	=117
1A	2c#	1A	2r
.	2c#	.	2e
1D	1d	2r	1f#
.	.	2A	.
=118	=118	=118	=118
2G	1d	1B	1g
2G	.	.	.
2F	2f	2c	2.a
4F	2f	2d	.
4G	.	.	4b
=119	=119	=119	=119
4A	2.e	4c	2cc
4B	.	4d	.
2.c	.	4e	1cc
.	4d	4f	.
.	4e	1g	.
4d	4f	.	.
2e	[2g	.	2b
=120	=120	=120	=120
1d	4g]	1a	1dd
.	8f	.	.
.	8e	.	.
.	2f	.	.
2A	1e	2a	1cc#
2A	.	2a	.
=121	=121	=121	=121
2B	0r	2g	0r
2c	.	2e	.
2.d	.	2.f	.
4d	.	4f	.
=122	=122	=122	=122
2c	0r	2e	2r
2.d	.	2.f	2a
.	.	.	2b
4c	.	4g	.
2A	.	[2a	2cc
=123	=123	=123	=123
1B	2r	4a]	1.dd
.	.	8g	.
.	.	8f#	.
.	2d	2g#	.
1A	2e	1a	.
.	2f#	.	2cc
=124	=124	=124	=124
0r	1.g	1e	2b
.	.	.	2g
.	.	2r	2.a
.	2f#	2d	.
.	.	.	4b
=125	=125	=125	=125
1r	2g	2e	4cc
.	.	.	4b
.	2d	2f#	2.dd
2r	1e	2g	.
.	.	.	4cc
2E	.	2g	[2cc
=126	=126	=126	=126
2F	1d	2a	2cc]
2G	.	2g	2b
[1A	1c	2e	1cc
.	.	2e	.
=127	=127	=127	=127
2A]	2c	2f	1r
2B	2d	2g	.
2c	2e	1a	2r
[2d	[2f	.	2a
=128	=128	=128	=128
4d]	4f]	2d	2b
4c	4g	.	.
2A	2.a	2e	2cc
1B	.	2.d	2dd
.	8g	.	.
.	8f#	.	.
.	2g#	.	[2dd
.	.	4e	.
=129	=129	=129	=129
1A	1a	4f	2dd]
.	.	4g	.
.	.	2.a	2cc
1r	1e	.	1b
.	.	4g	.
.	.	4g	.
.	.	8f	.
.	.	8e	.
=130	=130	=130	=130
2r	1r	1.f	1a
1d	.	.	.
.	1a	.	1r
[2c	.	2e	.
=131	=131	=131	=131
2c]	1g	1r	2r
2B	.	.	1dd
2.A	2f	1a	.
.	[2e	.	[2cc
4B	.	.	.
=132	=132	=132	=132
2c	2e]	1g	2cc]
2G	1d	.	2b
[1A	.	2f	[1a
.	4c	4e	.
.	4B	4d	.
=133	=133	=133	=133
2A]	2c	4e	1a]
.	.	4f	.
2G	2B	1e	.
1F	1A	.	1a
.	.	2d	.
=134	=134	=134	=134
1E	1B	2e	1g#
.	.	1B	.
2r	2r	.	2r
[2E	[2B	2B	[2g#
=135	=135	=135	=135
2E]	2B]	0e	2g#]
2E	2B	.	2g#
1A	1c#	.	1a
=136	=136	=136	=136
1D	2d	2f	2a
.	2f	2d	2a
1r	2e	2c#	2a
.	2f	2d	2a
=137	=137	=137	=137
0r	4e	4A	1cc
.	4d	4B	.
.	4e	4c	.
.	4f	4d	.
.	4g	4e	1b
.	4f	4f	.
.	[2e	4g	.
.	.	4e	.
=138	=138	=138	=138
1r	4e]	1f	0a
.	4d	.	.
.	2d	.	.
1A	2c	2e	.
.	2e	2A	.
=139	=139	=139	=139
2G#	2e	2B	0r
2A	2e	2c	.
4D	1f	1d	.
4E	.	.	.
4F	.	.	.
4G	.	.	.
=140	=140	=140	=140
4A	1e	2.c	2r
4G	.	.	.
4A	.	.	2a
4B	.	4d	.
2c	1r	2e	2g
2A	.	2f	2a
=141	=141	=141	=141
1B-	0r	2f	4d
.	.	.	4e
.	.	2d	4f
.	.	.	4g
[1A	.	2f	4a
.	.	.	4g
.	.	4e	4a
.	.	4d	4b
=142	=142	=142	=142
1A]	2r	4e	1cc
.	.	4A	.
.	2e	2.a	.
1r	2d	.	2b
.	.	8g	.
.	.	8f#	.
.	2e	2g#	2b
=143	=143	=143	=143
0r	4A	2a	1cc
.	4B	.	.
.	4c	2a	.
.	4d	.	.
.	2e	2g#	2b
.	[2f	2a	[2a
=144	=144	=144	=144
1r	4f]	4d	4a]
.	4e	4e	4g
.	2.d	4f	2f
.	.	4g	.
1A	.	2a	2e
.	4c	.	.
.	2c	[2e	2a
=145	=145	=145	=145
2G#	2B	2e]	2b
2A	2A	2e	2cc
4D	2r	1f	2dd
4E	.	.	.
4F	2A	.	[2cc
4G	.	.	.
=146	=146	=146	=146
4A	2c	1e	4cc]
4B	.	.	4b
4c	2c	.	1a
4A	.	.	.
1B-	1d	1d	.
.	.	.	2g
=147	=147	=147	=147
[0A	[0e	[0c#	[0a
=148	=148	=148	=148
0A]	0e]	0c#]	0a]
*-	*-	*-	*-
!!!CDT: 1525/^1526/-1594/2/2
!!!OCY: Italia
!!!AGN: Mass (Parody)
!!!AST: renaissance, vocal
!!!ASW: Motet 1569 (Palestrina)
!!!PWK: Masses, Book 4
!!!RNB: Cadence finals: A,C,G,F
!!!YOR: Le Opere Complete, v. 10, p. 150
!!!YOO: Rome, Italy: Fratelli Scalera
!!!END: 1992//
!!!EED: John Miller
!!!YEC: Copyright 2000, John Miller
!!!YEN: United States of America
!!!YEM: Rights to all derivative electronic formats reserved.
!!!YEM: Refer to licensing agreement for further details.
!!!YEM: This file must be accompanied by the licensing agreement.
!!!YEM: A copy of the licensing agreement may be found at http://www.music-cog.ohio-state.edu/HumdrumDatabases/Palestrina/license.txt
!!!EMD: converted to Humdrum by Bret Aarden
